X:89
T:Kansas City Kitty
C:Early Jazz (1920's) Key of G
N:arr. for mandolin by Steven Block 12/2012 
L:1/8
Q:1/4=210
M:4/4
K:G
z2 {^D}EG EF D=F | "G"D2 EF GA B2 | "Eb7"[^A2G2] [A4G4] de | {f}"G"g2 ed BA GF | 
"E7"[A2E2] [A4E4] (3E^D=D | "A7"^CD EF GB3 | "D7"[^AG][B3G3] D2 E2 | "G"Gz A^A "Edim7"Bd ed | 
"Am7"ge dc "D7"BA GE | "G"D2 E2 GA B2 | "Eb7"[^AG]z A[AG] z2 ed | "G"e2 d2 BA ^Dz | 
"E7"[AE]z E[AE] z2 (3E^D=D | "A7"^CD EF GB3 | "D7"[^AG][B3G3] D2 E2 | "G"G2 FE "Edim7"DC ^A,B, | 
"Am7"G,2 D^D "D7"EF GA | "B7"[B2F2] [c2F2] [B2F2] [c2F2] | [BF][c2F2][B2F2]A ^GF | 
"E7"[B2^G2] B[BG] z[BG] [BG]z | [e2^G2] e[eG] zd ^cB | "A7"[A2G2] [B2G2] [A2G2] [B2G2] | 
[AG][B2G2][AG] zG FE | "D7"[A2F2] A[AF] z[AF] [AF]z | "Daug"[d2F2] d[dF] zG FE | 
"G"D2 E2 GA B2 | "Eb7"[^A2G2] [A4G4] ef | "G"gd ed BA GF | "E7"[A2E2] [A4E4] (3E^D=D | 
"A7"^CD EF GB3 | "D7"[^AG][B3G3] D2 E2 | "G"GG2"D7"D ED B,2 | "G"G,4 [g2B2] GE | 
"2nd Break"DE GA Bd BG | "Eb7"^A=A G^D3 D2 | "G"DE GA Bd ed | "E7"fe dB3 B2 | 
"A7"^CD EF GB AG | "D7"CD E=F ^FA GF | "G"GA BG "Edim7"AB c^c | "Am7"dA FE "D7"D2 GE | 
"G"DE GA Bd BG | "Eb7"^A=A G^D3 D2 | "G"DE GA Bd ed | "E7"fe dB3 B2 | "A7"^CD EF GB AG | 
"D7"CD E=F ^FA GF | "G"GF =FE DC B,A, | "G"G,G, G,G,4z | "B7"[bB][b2B2][b2B2][bB] [bB][bB] | 
[b2B2] [^c'2^c2] [d'2d2] [^d'2^d2] | "E7"[e'e][e'2e2][e'2e2]^c' b^g | [e2e2] e[e2e2]e [e2e2] | 
"A7"[aA][a2A2][a2A2]f e^c | A2 AB ^cd e2 | "D7"[d2D2] [^c2D2] [=cD]A FA | "Daug"[c2D2] [B2D2] [AD]F D2 | 
"G"DE GA Bd BG | "Eb7"^A=A G^D3 D2 | "G"DE GA Bd ed | "E7"fe dB3 B2 | "A7"^CD EF GB AG | 
"D7"CD E=F ^FA GF | "G"GF =FE DC B,A, | "G"G,B, DG4z | 


